X: 34285
T: Repeal The Poll Tax
R: reel
M: 4/4
K: Amajor
|:AB|ceec dcBc|AFEF A2FA|B2BA cefe|afec B2AB|
ceec dcBc|AFEF A2FA|B2BA cefe|afec A2:|
|:ce|f2fe faaf|feef c2ec|B2BA cefe|afec B2ce|
f2fe faaf|feef c2ec|B2BA cefe|afec A2:|

